FINK
CUT[WAS SPINNST DU FRAGTE NACHBARS FRITZ]
REG[Europa, Mitteleuropa, Deutschland]
KEY[F0881  16  C 2/4]
MEL[-5_  1_-5_1_-5_  3_.21_
    -7_  -6_-5_-4_-3_  -5_-4_-3_
    -5_  1_-5_1_-5_  3_.21_
    -7_  -6_-7_1_2_  2__-5_
    -5_  -7_1-7-5_-6_  -7_1-6-5_
    -5_  2_-7_2_-7_  2__-7_
    -5_  4_321-7-6-5  3_.21_
    1_  -6_2_-7_-5_  -5_3_3_
    1_  -6_2_-7_-5_  -5__1_ //] >>
FCT[Liebes -, Moral - Lied]
